assets/xdadevelopers/mono.svg

<svg viewBox="0 0 24 24" xmlns="http://www.w3.org/2000/svg"><path d="m13.84 3.052v-3.052h7.843v17.583h-7.843v-3.024h4.591v-11.507zm-8.271 11.478v-11.506h4.592v-3.024h-7.843v17.583h4.662l3.18 6.417v-9.483z"/></svg>

<svg xmlns="http://www.w3.org/2000/svg" viewBox="0 0 24 24"><path d="M13.84 3.052V0h7.843v17.583H13.84v-3.024h4.591V3.052zM5.569 14.53V3.024h4.592V0H2.318v17.583H6.98L10.16 24v-9.483z"/></svg>
